X:326
T:Ingonish Jig
R:jig
H:A version of the Tenpenny Bit, #16
O:Cape Breton
Z:id:hn-jig-326
M:6/8
L:1/8
K:Edor
Bee efg|fef dBA|Bee efg|fdc d2A|Bee efg|fef dBA|BdB AFD|EFE E3:|
|:BEE BEE|FEF DFA|BEE BEE|ABc dcd|BEE BEE|FEF DFA|BdB AFD|EFE E3:|

